public/svgs/regular/calendar.svg

<svg xmlns="http://www.w3.org/2000/svg" viewBox="0 0 448 512"><!--! Font Awesome Pro 6.0.0-alpha3 by @fontawesome - https://fontawesome.com License - https://fontawesome.com/license (Commercial License) --><path d="M384 64h-40V24c0-13.25-10.75-24-23.1-24S296 10.75 296 24V64h-144V24C152 10.75 141.3 0 128 0S104 10.75 104 24V64H64C28.65 64 0 92.65 0 128v320c0 35.35 28.65 64 64 64h320c35.35 0 64-28.65 64-64V128C448 92.65 419.3 64 384 64zM384 464H64c-8.822 0-16-7.176-16-16V192h352v256C400 456.8 392.8 464 384 464z"/></svg>

<svg xmlns="http://www.w3.org/2000/svg" viewBox="0 0 448 512"><!--! Font Awesome Free 6.4.0 by @fontawesome - https://fontawesome.com License - https://fontawesome.com/license/free (Icons: CC BY 4.0, Fonts: SIL OFL 1.1, Code: MIT License) Copyright 2023 Fonticons, Inc. --><path d="M152 24c0-13.3-10.7-24-24-24s-24 10.7-24 24V64H64C28.7 64 0 92.7 0 128v16 48V448c0 35.3 28.7 64 64 64H384c35.3 0 64-28.7 64-64V192 144 128c0-35.3-28.7-64-64-64H344V24c0-13.3-10.7-24-24-24s-24 10.7-24 24V64H152V24zM48 192H400V448c0 8.8-7.2 16-16 16H64c-8.8 0-16-7.2-16-16V192z"/></svg>
